X:1539
T:Polska efter Johan Persson Bergström
R:Polska
Z:Lennart Sohlman
O:Härjedalen
S:efter [[!Fritiof Mesch]], Linsell
N:Uppteckning: Lennart Sohlman
Q:150
M:3/4
L:1/8
K:G
{D}G>A Bc B2-|BA Bc B2|d2 (c/A/c) (GF)|{F}[A2A2]D4|!
{D}G>A Bc B2-|BA Bc B2|d2 (c/A/c) (GF)|{F}G2 G3z::!
{de}d>B cd (3(ece)|(3(dBd) (3(cAc) (BG)|Bd cA G!tenuto!F|D2 d3z|!
{de}d>B cd (3(ece)|(3(dBd) (3(cAc) (BG)|Bd cA G!tenuto!F|{F}G2 G3z:|]
(:musicend:)
(:music:)
